X:27
T: The Rambling Boys of Pleasure, S. 84
N: I0526
O: Irland
S: O BOYLE, Sean: 25 Irish Folksongs, Dublin 1976]
R: Liebeslied, nicht beantwortete Liebe]
M: 4/4
L: 1/16
K: D
A2F2 | D6D2D2F2A4 | d6A2G6A2 | F6A2G2E2D2C2 | D6D2D4
c2d2 | e6c2A4c2e2 | d6e2c2A2F2A2 | B6c2d2B2A2F2 | A4B2d2
d2 | e6c2A4c2e2 | d6e2c2A2F2A2 | B6c2d2B2A2F2 | A4B2d2d
F2E2 | D6D2D2F2A4 | d6A2G6AG | F6A2G2E2D2C2 | D6D2D4

